!!!COM:	Compere, Loyset
!!!CDT:	~1445///-1518/08/16
!!!OTL:	Vol&eacute;s o&iuml;r une chanson
!!!AGN:	Song; Chanson
!!!SCT:	Com3047
!!!SCA:	Com3047
!!!voices:	4
**kern	**kern	**kern	**kern
*staff4	*staff3	*staff2	*staff1
*Ivox	*Ivox	*Ivox	*Ivox
*I"Bassus	*I"Tenor	*I"Altus	*I"Superius
*I'B	*I'T	*I'A	*I'S
*clefF4	*clefGv2	*clefGv2	*clefG2
*k[b-]	*k[b-]	*k[b-]	*k[b-]
*M2/1	*M2/1	*M2/1	*M2/1
*met(C|)	*met(C|)	*met(C|)	*met(C|)
=1-	=1-	=1-	=1-
0G	0r	0r	0r
=2	=2	=2	=2
1E	0r	0r	0r
1F	.	.	.
=3	=3	=3	=3
1.G	0r	0d	0r
2G	.	.	.
=4	=4	=4	=4
1G	0r	0B-	0g
1E	.	.	.
=5	=5	=5	=5
1C	0r	0c	0e
1E	.	.	.
=6	=6	=6	=6
2.D	0d	[0d	0f
4C	.	.	.
1D	.	.	.
=7	=7	=7	=7
2GG	0B-	0d]	[0g
2.G	.	.	.
4F	.	.	.
2G	.	.	.
=8	=8	=8	=8
2E	0c	0r	1g]
1.C	.	.	.
.	.	.	1g
=9	=9	=9	=9
1G	0d	1r	1g
1D	.	1d	1f
=10	=10	=10	=10
1BB-	0r	1d	1b-
1F	.	1c	1a
=11	=11	=11	=11
2r	1r	0B-	2g
1.G	.	.	1b-
.	1d	.	.
.	.	.	4a
.	.	.	4g
=12	=12	=12	=12
2.D	1d	0A	2.f
4E	.	.	4g
4F	1c	.	1a
4G	.	.	.
2A	.	.	.
=13	=13	=13	=13
2B-	0B-	0G	1d
2.G	.	.	.
.	.	.	[1g
4D	.	.	.
2G	.	.	.
=14	=14	=14	=14
2.D	0A	0d	2g]
.	.	.	4f#i
4C	.	.	4e
1D	.	.	1f#i
=15	=15	=15	=15
1GG	[0G	0B-	0g
1r	.	.	.
=16	=16	=16	=16
0C	0G]	0c	1r
.	.	.	1g
=17	=17	=17	=17
1BB-	0r	[0d	0b-
1GG	.	.	.
=18	=18	=18	=18
1D	0d	0d]	1a
2r	.	.	[1f
[2D	.	.	.
=19	=19	=19	=19
4D]	0B-	0r	2f]
4C	.	.	.
2D	.	.	2d
2.E	.	.	1g
4D	.	.	.
=20	=20	=20	=20
2E	0c	0r	2e
2.F	.	.	2.a
4E	.	.	4g
2F	.	.	2a
=21	=21	=21	=21
2D	0d	1r	2f
1G	.	.	1b-
.	.	1d	.
2F	.	.	[2a
=22	=22	=22	=22
2.D	0r	1d	2a]
.	.	.	4g
4E	.	.	4f
2F	.	1c	2a
[2E-	.	.	[2g
=23	=23	=23	=23
2E-]	1r	0B-	2g]
2D	.	.	2f
1G	1d	.	1g
=24	=24	=24	=24
2.D	1d	0A	1a
4E	.	.	.
4F	1c	.	2r
4G	.	.	.
4A	.	.	2a
4F	.	.	.
=25	=25	=25	=25
2G	0B-	0G	2.b-
2.GG	.	.	.
.	.	.	4cc
.	.	.	2dd
4AA	.	.	.
4BB-	.	.	[2g
4C	.	.	.
=26	=26	=26	=26
1D	0A	0r	2g]
.	.	.	4f#i
.	.	.	4e
1D	.	.	1f#i
=27	=27	=27	=27
1E	0G	1r	1g
1E	.	1G	2r
.	.	.	2g
=28	=28	=28	=28
2.D	0r	1.A	2f
.	.	.	4e
4E	.	.	4d
2F	.	.	2c
2C	.	2G	[2e
=29	=29	=29	=29
1D	1r	1F	4e]
.	.	.	4d
.	.	.	2.d
1r	1G	1E	.
.	.	.	4c#i
.	.	.	4c#i
.	.	.	4Bni
=30	=30	=30	=30
1.F	1.A	0D	1d
.	.	.	1r
2E	2G	.	.
=31	=31	=31	=31
1D	1F	0r	1d
1C	1E	.	1e
=32	=32	=32	=32
2D	0D	1r	1f
1BB-	.	.	.
.	.	1D	2d
4AA	.	.	2B-
4GG	.	.	.
=33	=33	=33	=33
1AA	1r	1F	1c
1GG	1D	1G	1B-
=34	=34	=34	=34
1D	1F	1A	1f
1GG	1G	1B-	1d
=35	=35	=35	=35
0D	1A	1A	1.f
.	1B-	1d	.
.	.	.	2g
=36	=36	=36	=36
1r	0A	1c	2.a
.	.	.	4b-
1F	.	1A	1cc
=37	=37	=37	=37
1G	0d	0B-	2b-
.	.	.	4a
.	.	.	4g
1D	.	.	2.f
.	.	.	4g
=38	=38	=38	=38
0F	1c	0A	1.a
.	1A	.	.
.	.	.	4g
.	.	.	4f
=39	=39	=39	=39
0G	0B-	1r	2e
.	.	.	2d
.	.	1G	1g
=40	=40	=40	=40
0D	0A	1F	2.a
.	.	.	4g
.	.	1F	4f
.	.	.	4e
.	.	.	2f
=41	=41	=41	=41
0C	1r	0E	2g
.	.	.	2.e
.	1G	.	.
.	.	.	4d
.	.	.	2c
=42	=42	=42	=42
1r	0F	0D	2B-
.	.	.	1A
1D	.	.	.
.	.	.	[2d
=43	=43	=43	=43
0AA	0E	0r	2d]
.	.	.	4c#i
.	.	.	4Bni
.	.	.	1c#i
=44	=44	=44	=44
0A	0D	1r	1.d
.	.	1d	.
.	.	.	2e
=45	=45	=45	=45
1r	0r	1d	1f
1G	.	1d	[1g
=46	=46	=46	=46
1G	1r	1d	2g]
.	.	.	2a
1G	1d	1d	[1b-
=47	=47	=47	=47
1G	1d	0G	2b-]
.	.	.	2a
1G	1d	.	1g
=48	=48	=48	=48
0D	1d	0A	1f
.	1d	.	2r
.	.	.	2f
=49	=49	=49	=49
0E	0G	0G	2e
.	.	.	2d
.	.	.	[1g
=50	=50	=50	=50
0D	0A	1r	2g]
.	.	.	4f#i
.	.	.	4e
.	.	1d	1f#i
=51	=51	=51	=51
1G	0G	1B-	0g
1E	.	1c	.
=52	=52	=52	=52
1F	0r	1d	0r
1G	.	2r	.
.	.	2d	.
=53	=53	=53	=53
2r	0r	2.d	0r
2G	.	.	.
.	.	4c	.
2G	.	2B-	.
2F	.	[2A	.
=54	=54	=54	=54
1G	1d	4A]	1r
.	.	4G	.
.	.	1G	.
1D	1B-	.	1d
.	.	2F	.
=55	=55	=55	=55
1C	1c	1G	1e
1r	1d	1r	1f
=56	=56	=56	=56
0r	2r	0r	2g
.	2d	.	2a
.	2d	.	2b-
.	2c	.	[2a
=57	=57	=57	=57
1r	1B-	1d	4a]
.	.	.	4g
.	.	.	1g
1D	1A	2d	.
.	.	2d	2f#i
=58	=58	=58	=58
2.E-	1G	2B-	0g
.	.	2B-	.
4D	.	.	.
2C	2r	2c	.
2BB-	2G	2d	.
=59	=59	=59	=59
1AA	2.A	2c	1r
.	.	2.A	.
.	4G	.	.
1r	2F	.	2r
.	.	4B-	.
.	2E	2c	2g
=60	=60	=60	=60
1.D	1D	2.F	2.a
.	.	4G	4g
.	1r	4A	2f
.	.	4B-	.
2C	.	2c	2e
=61	=61	=61	=61
2BB-	2r	2d	1d
2GG	2D	2B-	.
1D	2.F	[1A	2r
.	.	.	2d
.	4G	.	.
=62	=62	=62	=62
2r	2A	2A]	2.f
2G	2B-	2G	.
.	.	.	4g
2F	2A	2c	2a
2G	2d	2B-	[2b-
=63	=63	=63	=63
2A	2c	1c	4b-]
.	.	.	4a
2F	4B-	.	1a
.	4A	.	.
1G	1B-	2r	.
.	.	[2d	2g
=64	=64	=64	=64
2D	1A	2d]	2.a
1F	.	2.c	.
.	.	.	4g
.	2r	.	2f
.	.	4B-	.
2C	2G	2c	[2e
=65	=65	=65	=65
1D	1F	2A	4e]
.	.	.	4d
.	.	2B-	1d
1AA	1E	1A	.
.	.	.	2c#i
=66	=66	=66	=66
1A	1D	1F	1d
2r	2r	2r	2r
[2D	2d	2A	2d
=67	=67	=67	=67
2D]	2d	2A	2f
1G	2d	2B-	2g
.	2d	2G	2b-
2F	2d	2A	[2a
=68	=68	=68	=68
2G	1G	2B-	4a]
.	.	.	4g
2E	.	2c	1g
1D	1A	1d	.
.	.	.	2f#i
=69	=69	=69	=69
0GGl	0Gl	0dl	0gl
==	==	==	==
*-	*-	*-	*-
!!!RDF**kern: l=long note in original notation
!!!RDF**kern: i=editorial accidental
!!!ENC:	Megan K. Eagen 2013/12/18
!!!END:	2013/12/18/
!!!EED:	Jesse Rodin
!!!EEV:	2014/02/23/
!!!ONB:	Translated from MusicXML and edited on 2014/02/23/ by Craig Sapp
!!muse2ps: C^@{COM}^i2I150v85,85,85,150Q16
